X: 1997
T: As I Went Out Upon The Ice
R: polka
M: 2/4
K: Adorian
gf|:e>A BA|e2 AB/d/|eA B/c/B/A/|G2 G2|
eA BA|eA B/c/B/A/|G>e dB|1 A2 g>f:|2 A2 A2||
e2 a>b|ag ed|Bd ef|g2 fg/f/|
ea ab|ag ed|B/c/d/B/ gB|A2 A2:|

